src/assets/svgs/whatsapp-icon.svg

<svg width="64" height="64" viewBox="0 0 64 64" fill="none" xmlns="http://www.w3.org/2000/svg">
<g filter="url(#filter0_d_267_65540)">
<rect x="8" y="8" width="48" height="48" rx="24" fill="#25D366"/>
<path fill-rule="evenodd" clip-rule="evenodd" d="M18.4691 45.4343C18.645 45.616 18.8823 45.7143 19.1259 45.7143C19.2038 45.7143 19.2826 45.7043 19.3599 45.6835L25.8089 43.9575C27.7324 44.9588 29.8816 45.4871 32.0541 45.4877C39.6295 45.4877 45.7946 39.1963 45.798 31.4633C45.7989 27.716 44.3709 24.1926 41.7759 21.5412C39.1809 18.8908 35.7283 17.43 32.0538 17.4285C24.4782 17.4285 18.3124 23.7196 18.3096 31.452V31.4699C18.3118 33.7931 18.879 36.0817 19.9539 38.1158L18.2348 44.5223C18.1477 44.8472 18.237 45.1948 18.4691 45.4343ZM26.3641 42.1249C26.2274 42.0488 26.0753 42.0098 25.9219 42.0098C25.8434 42.0098 25.7649 42.0199 25.6879 42.0403L20.4394 43.4452L21.8354 38.2425C21.9007 37.9995 21.8681 37.7399 21.7446 37.5218C20.7054 35.6839 20.1565 33.5854 20.1571 31.4532V31.4366C20.1682 24.7507 25.502 19.3142 32.0535 19.3142C35.2345 19.3154 38.223 20.5798 40.4688 22.8741C42.715 25.1691 43.9515 28.2192 43.9503 31.4627C43.9478 38.1564 38.6109 43.602 32.0486 43.602C30.0651 43.6014 28.0994 43.0907 26.3641 42.1249ZM27.8455 25.7146C28.0872 25.7239 28.3551 25.7341 28.6092 26.2523C28.7816 26.6041 29.0711 27.2577 29.3034 27.7821C29.4774 28.1749 29.6192 28.4952 29.6557 28.5618C29.7405 28.7173 29.797 28.8991 29.6838 29.1067C29.6667 29.1379 29.651 29.1674 29.6359 29.1956C29.551 29.3544 29.4886 29.4711 29.3447 29.6256C29.2882 29.686 29.2298 29.7512 29.1713 29.8164C29.0542 29.9469 28.937 30.0775 28.8353 30.1705C28.665 30.3257 28.4881 30.4944 28.6862 30.8054C28.8843 31.1171 29.5656 32.1354 30.5749 32.9603C31.6591 33.846 32.6011 34.2208 33.0795 34.4111C33.1734 34.4485 33.2494 34.4788 33.3052 34.5044C33.6446 34.6599 33.8426 34.6339 34.0407 34.426C34.2388 34.2185 34.8888 33.5177 35.1153 33.2067C35.3414 32.8951 35.5678 32.9468 35.8792 33.0506C36.1905 33.1547 37.8592 33.9074 38.1989 34.063C38.2652 34.0933 38.3271 34.1207 38.3846 34.1461C38.6213 34.2508 38.7813 34.3216 38.8496 34.426C38.9344 34.5561 38.9344 35.1788 38.6515 35.9053C38.3686 36.6317 36.9824 37.3324 36.3601 37.3842C36.3001 37.3892 36.2405 37.3956 36.1791 37.4022C35.6038 37.4642 34.8776 37.5424 32.2861 36.6057C29.0967 35.4531 26.9934 32.5954 26.5598 32.0062C26.5243 31.958 26.5 31.925 26.4872 31.9093L26.4826 31.9036C26.2969 31.6758 25.101 30.209 25.101 28.6913C25.101 27.2583 25.8697 26.5071 26.2233 26.1616C26.2474 26.1381 26.2696 26.1164 26.2894 26.0965C26.6004 25.7852 26.9682 25.7074 27.1946 25.7074C27.2097 25.7074 27.2248 25.7074 27.2399 25.7074C27.4508 25.7074 27.6604 25.7073 27.8453 25.7146L27.8455 25.7146Z" fill="white"/>
</g>
<defs>
<filter id="filter0_d_267_65540" x="0" y="0" width="64" height="64" filterUnits="userSpaceOnUse" color-interpolation-filters="sRGB">
<feFlood flood-opacity="0" result="BackgroundImageFix"/>
<feColorMatrix in="SourceAlpha" type="matrix" values="0 0 0 0 0 0 0 0 0 0 0 0 0 0 0 0 0 0 127 0" result="hardAlpha"/>
<feOffset/>
<feGaussianBlur stdDeviation="4"/>
<feComposite in2="hardAlpha" operator="out"/>
<feColorMatrix type="matrix" values="0 0 0 0 0 0 0 0 0 0 0 0 0 0 0 0 0 0 0.3 0"/>
<feBlend mode="normal" in2="BackgroundImageFix" result="effect1_dropShadow_267_65540"/>
<feBlend mode="normal" in="SourceGraphic" in2="effect1_dropShadow_267_65540" result="shape"/>
</filter>
</defs>
</svg>

<svg width="64" height="64" viewBox="0 0 64 64" fill="none" xmlns="http://www.w3.org/2000/svg"><g filter="url(#a)"><rect x="8" y="8" width="48" height="48" rx="24" fill="#25D366"/><path fill-rule="evenodd" clip-rule="evenodd" d="M18.47 45.434a.91.91 0 0 0 .89.25l6.449-1.726a13.56 13.56 0 0 0 6.245 1.53c7.575 0 13.74-6.292 13.744-14.025 0-3.747-1.427-7.27-4.022-9.922-2.595-2.65-6.048-4.111-9.722-4.113-7.576 0-13.742 6.292-13.744 14.024v.018a14.3 14.3 0 0 0 1.644 6.646l-1.72 6.406a.96.96 0 0 0 .235.912m7.894-3.31a.9.9 0 0 0-.676-.084l-5.249 1.405 1.396-5.203a.96.96 0 0 0-.09-.72 12.34 12.34 0 0 1-1.588-6.069v-.016c.011-6.686 5.345-12.123 11.897-12.123 3.18.001 6.169 1.266 8.415 3.56s3.483 5.345 3.481 8.589c-.002 6.693-5.34 12.139-11.901 12.139-1.984 0-3.95-.511-5.685-1.477m1.482-16.41c.241.01.51.02.763.538.173.352.462 1.006.694 1.53.174.393.316.713.353.78.085.155.141.337.028.545l-.048.089a1.8 1.8 0 0 1-.291.43q-.085.091-.174.19a5 5 0 0 1-.336.355c-.17.155-.347.323-.149.634.198.312.88 1.33 1.889 2.155a9 9 0 0 0 2.505 1.451q.141.056.225.093c.34.156.538.13.736-.078s.848-.908 1.074-1.22c.226-.31.453-.26.764-.155.312.104 1.98.856 2.32 1.012l.186.083c.236.105.396.176.465.28.084.13.084.753-.199 1.48-.282.726-1.669 1.426-2.29 1.478l-.182.018c-.575.062-1.301.14-3.893-.796-3.19-1.153-5.293-4.01-5.726-4.6l-.073-.097-.004-.005c-.186-.228-1.382-1.695-1.382-3.213 0-1.433.769-2.184 1.122-2.53l.066-.065a1.3 1.3 0 0 1 .906-.389h.045c.21 0 .42 0 .605.008" fill="#fff"/></g><defs><filter id="a" x="0" y="0" width="64" height="64" filterUnits="userSpaceOnUse" color-interpolation-filters="sRGB"><feFlood flood-opacity="0" result="BackgroundImageFix"/><feColorMatrix in="SourceAlpha" values="0 0 0 0 0 0 0 0 0 0 0 0 0 0 0 0 0 0 127 0" result="hardAlpha"/><feOffset/><feGaussianBlur stdDeviation="4"/><feComposite in2="hardAlpha" operator="out"/><feColorMatrix values="0 0 0 0 0 0 0 0 0 0 0 0 0 0 0 0 0 0 0.3 0"/><feBlend in2="BackgroundImageFix" result="effect1_dropShadow_267_65540"/><feBlend in="SourceGraphic" in2="effect1_dropShadow_267_65540" result="shape"/></filter></defs></svg>
